X:48
T:Blackberry Blossom
C:Traditional
N:Arranged by Tim O'Brien
R:bluegrass
L:1/8
Q:1/4=240
M:4/4
K:C
e^f |: "G"ga bg "D"^fg af | "C"e^f ge "G"dB AG | "C"E^F GE "G"DF GA | "A"BG Bd "D"A2 e^f | 
"G"ga bg "D"^fg af | "C"e^f ge "G"dB AG | "C"E^F GE "G"DF GA |1 B"D"G A^F "G"G2 e^f :|2 B"D"G A^F "G"G2 GF |] 
|: "Em"E2 BB dB e2 | EE BB dB AG | E2 BB dB e^f | "B7"g^f af gf ed | "Em"E2 BB dB e2 | 
EE BB dB AG | "C"E^F GE "G"DF GA |1 B"D"G A^F "G"G2 GF :|2 B"D"G A^F "G" G4 |] 

